assets/offering/forsakringsvillkor-grey.svg

<svg width="48" height="48" viewBox="0 0 48 48" fill="none" xmlns="http://www.w3.org/2000/svg">
<g opacity="0.3">
<mask id="mask0" mask-type="alpha" maskUnits="userSpaceOnUse" x="0" y="0" width="48" height="48">
<path fill-rule="evenodd" clip-rule="evenodd" d="M0 0H47.9999V48H0V0Z" fill="white"/>
</mask>
<g mask="url(#mask0)">
<path fill-rule="evenodd" clip-rule="evenodd" d="M48 24C48 37.255 37.255 48 24 48C10.745 48 0 37.255 0 24C0 10.745 10.745 0 24 0C37.255 0 48 10.745 48 24Z" fill="#0F007A"/>
</g>
<path fill-rule="evenodd" clip-rule="evenodd" d="M16.7539 11.582C15.9269 11.582 15.2539 12.255 15.2539 13.082V34.918C15.2539 35.745 15.9269 36.418 16.7539 36.418H31.2459C32.0729 36.418 32.7459 35.745 32.7459 34.918V13.082C32.7459 12.255 32.0729 11.582 31.2459 11.582H16.7539ZM31.2459 37.418H16.7539C15.3749 37.418 14.2539 36.297 14.2539 34.918V13.082C14.2539 11.703 15.3749 10.582 16.7539 10.582H31.2459C32.6249 10.582 33.7459 11.703 33.7459 13.082V34.918C33.7459 36.297 32.6249 37.418 31.2459 37.418Z" fill="white"/>
<mask id="mask1" mask-type="alpha" maskUnits="userSpaceOnUse" x="0" y="0" width="48" height="48">
<path fill-rule="evenodd" clip-rule="evenodd" d="M0 48H48V0H0V48Z" fill="white"/>
</mask>
<g mask="url(#mask1)">
<path fill-rule="evenodd" clip-rule="evenodd" d="M17.8899 16.8828H30.1099V15.8828H17.8899V16.8828Z" fill="white"/>
<path fill-rule="evenodd" clip-rule="evenodd" d="M17.8899 21.9736H30.1099V20.9736H17.8899V21.9736Z" fill="white"/>
<path fill-rule="evenodd" clip-rule="evenodd" d="M17.8899 27.0635H30.1099V26.0635H17.8899V27.0635Z" fill="white"/>
<path fill-rule="evenodd" clip-rule="evenodd" d="M17.8899 32.1543H24.4999V31.1543H17.8899V32.1543Z" fill="white"/>
</g>
</g>
</svg>

<svg width="48" height="48" viewBox="0 0 48 48" fill="none" xmlns="http://www.w3.org/2000/svg"><g opacity=".3"><mask id="a" maskUnits="userSpaceOnUse" x="0" y="0" width="48" height="48"><path fill-rule="evenodd" clip-rule="evenodd" d="M0 0h48v48H0V0z" fill="#fff"/></mask><g mask="url(#a)"><path fill-rule="evenodd" clip-rule="evenodd" d="M48 24c0 13.255-10.745 24-24 24S0 37.255 0 24 10.745 0 24 0s24 10.745 24 24z" fill="#0F007A"/></g><path fill-rule="evenodd" clip-rule="evenodd" d="M16.754 11.582c-.827 0-1.5.673-1.5 1.5v21.836c0 .827.673 1.5 1.5 1.5h14.492c.827 0 1.5-.673 1.5-1.5V13.082c0-.827-.673-1.5-1.5-1.5H16.754zm14.492 25.836H16.754a2.502 2.502 0 01-2.5-2.5V13.082c0-1.379 1.12-2.5 2.5-2.5h14.492c1.379 0 2.5 1.121 2.5 2.5v21.836c0 1.379-1.121 2.5-2.5 2.5z" fill="#fff"/><mask id="b" maskUnits="userSpaceOnUse" x="0" y="0" width="48" height="48"><path fill-rule="evenodd" clip-rule="evenodd" d="M0 48h48V0H0v48z" fill="#fff"/></mask><g mask="url(#b)" fill-rule="evenodd" clip-rule="evenodd" fill="#fff"><path d="M17.89 16.883h12.22v-1H17.89v1zM17.89 21.974h12.22v-1H17.89v1zM17.89 27.064h12.22v-1H17.89v1zM17.89 32.154h6.61v-1h-6.61v1z"/></g></g></svg>
